src/svgs/crystal_embedded.svg

<?xml version="1.0" encoding="UTF-8" standalone="no"?>
<svg
   viewBox="0 0 32 32"
   version="1.1"
   id="svg829"
   xmlns="http://www.w3.org/2000/svg"
   xmlns:svg="http://www.w3.org/2000/svg">
  <defs
     id="defs833" />
  <path
     id="path825"
     d="M 16 3.8515625 L 10.740234 6.8886719 L 5.4785156 9.9257812 L 5.4785156 22.074219 L 10.738281 25.111328 L 16 28.150391 L 21.259766 25.111328 L 26.521484 22.074219 L 26.521484 9.9257812 L 21.261719 6.8886719 L 16 3.8515625 z M 14.076172 11.517578 L 15.384766 12.841797 L 11.228516 16.251953 L 15.384766 19.701172 L 14.076172 21.025391 L 8.4316406 16.267578 L 14.076172 11.517578 z M 17.923828 11.517578 L 23.568359 16.267578 L 17.923828 21.023438 L 16.625 19.701172 L 20.771484 16.283203 L 16.625 12.839844 L 17.923828 11.517578 z " />
</svg>

<svg viewBox="0 0 32 32" xmlns="http://www.w3.org/2000/svg"><path d="M16 3.851l-5.26 3.037-5.261 3.038v12.148l5.26 3.037L16 28.15l5.26-3.038 5.261-3.037V9.926l-5.26-3.038z" fill="#dfdfdf"/><path d="M14.077 21.025l-5.646-4.758 5.646-4.75 1.307 1.324-4.155 3.41 4.155 3.45zm3.846-9.508l5.646 4.75-5.646 4.757-1.298-1.323 4.146-3.418-4.146-3.443z" fill="#fff"/></svg>
